app/assets/icons/link.svg

<svg xmlns="http://www.w3.org/2000/svg" viewBox="0 0 640 512"><!--! Font Awesome Pro 6.0.0 by @fontawesome - https://fontawesome.com License - https://fontawesome.com/license (Commercial License) Copyright 2022 Fonticons, Inc. --><path d="M444.5 380.5C394.5 430.4 313.4 430.4 263.4 380.5C213.4 330.5 213.4 249.4 263.4 199.4L303 159.8C306.2 156.7 311.2 156.7 314.3 159.8C317.5 162.1 317.5 168 314.3 171.1L274.7 210.7C231 254.5 231 325.4 274.7 369.1C318.5 412.9 389.4 412.9 433.1 369.1L568.9 233.4C612.6 189.6 612.6 118.7 568.9 74.98C525.2 31.24 454.2 31.24 410.5 74.98L393.5 91.95C390.4 95.07 385.4 95.07 382.2 91.95C379.1 88.83 379.1 83.76 382.2 80.64L399.2 63.67C449.2 13.68 530.2 13.68 580.2 63.67C630.2 113.7 630.2 194.7 580.2 244.7L444.5 380.5zM195.5 131.5C245.5 81.56 326.6 81.56 376.6 131.5C426.6 181.5 426.6 262.6 376.6 312.6L336.1 352.2C333.8 355.3 328.8 355.3 325.7 352.2C322.5 349 322.5 343.1 325.7 340.9L365.3 301.3C408.1 257.5 408.1 186.6 365.3 142.9C321.5 99.12 250.6 99.12 206.9 142.9L71.1 278.6C27.36 322.4 27.36 393.3 71.1 437C114.8 480.8 185.8 480.8 229.5 437L246.5 420C249.6 416.9 254.7 416.9 257.8 420C260.9 423.2 260.9 428.2 257.8 431.4L240.8 448.3C190.8 498.3 109.8 498.3 59.79 448.3C9.798 398.3 9.798 317.3 59.79 267.3L195.5 131.5z"/></svg>

<?xml version="1.0" encoding="utf-8"?>
<!-- Generator: Adobe Illustrator 25.0.0, SVG Export Plug-In . SVG Version: 6.00 Build 0)  -->
<svg version="1.1" id="Layer_1" xmlns="http://www.w3.org/2000/svg" xmlns:xlink="http://www.w3.org/1999/xlink" x="0px" y="0px"
	 viewBox="0 0 640 512" style="enable-background:new 0 0 640 512;" xml:space="preserve">
<style type="text/css">
	.st0{opacity:0.6;enable-background:new    ;}
	.st1{fill:#808080;}
	.st2{fill:#333333;}
</style>
<g id="Layer_2_1_">
	<g class="st0">
		<path class="st1" d="M376.5,132.1c49.8,49.8,49.2,131.9-1.4,182.5L242.5,447.2c-50.6,50.6-132.7,51.2-182.5,1.4
			s-49.2-131.9,1.4-182.5L194,133.5C244.6,82.9,326.7,82.3,376.5,132.1z"/>
	</g>
	<g class="st0">
		<path class="st1" d="M580,64.4c49.8,49.8,49.2,131.9-1.4,182.5L446,379.5c-50.6,50.6-132.7,51.2-182.5,1.4s-49.2-131.9,1.4-182.5
			L397.5,65.8C448,15.3,530.2,14.6,580,64.4z"/>
	</g>
</g>
<path class="st2" d="M444.5,380.5c-50,49.9-131.1,49.9-181.1,0c-50-50-50-131.1,0-181.1l39.6-39.6c3.2-3.1,8.2-3.1,11.3,0
	c3.2,2.3,3.2,8.2,0,11.3l-39.6,39.6c-43.7,43.8-43.7,114.7,0,158.4c43.8,43.8,114.7,43.8,158.4,0l135.8-135.7
	c43.7-43.8,43.7-114.7,0-158.4c-43.7-43.7-114.7-43.7-158.4,0l-17,17c-3.1,3.1-8.1,3.1-11.3,0c-3.1-3.1-3.1-8.2,0-11.3l17-17
	c50-50,131-50,181,0c50,50,50,131,0,181L444.5,380.5z M195.5,131.5c50-49.9,131.1-49.9,181.1,0c50,50,50,131.1,0,181.1l-40.5,39.6
	c-2.3,3.1-7.3,3.1-10.4,0c-3.2-3.2-3.2-9.1,0-11.3l39.6-39.6c42.8-43.8,42.8-114.7,0-158.4c-43.8-43.8-114.7-43.8-158.4,0
	L71.1,278.6c-43.7,43.8-43.7,114.7,0,158.4c43.7,43.8,114.7,43.8,158.4,0l17-17c3.1-3.1,8.2-3.1,11.3,0c3.1,3.2,3.1,8.2,0,11.4
	l-17,16.9c-50,50-131,50-181,0c-50-50-50-131,0-181L195.5,131.5z"/>
</svg>
